svg/u1f45a.svg

<svg viewBox="0 0 128 128" xmlns="http://www.w3.org/2000/svg">
  <g>
    <path d="M122.23,46.29c-2.47-4.62-12.99-21.64-23.56-27.97c-2.6-1.55-9.82-3.55-13.04-4.43h0 c-4.25-1.49-5.66-1.28-7.04-0.63c-5.26,2.49-8.79,3.68-14.18,3.68c-0.15,0-0.29-0.01-0.43-0.01c-0.14,0.01-0.28,0.01-0.43,0.01 c-5.39,0-8.92-1.19-14.18-3.68c-1.38-0.65-2.79-0.86-7.04,0.63h0c-3.22,0.88-10.44,2.88-13.04,4.43 C18.72,24.64,8.2,41.67,5.73,46.29c-0.35,0.64-0.79,1.21-0.53,1.88c1.22,3.11,5.63,7.18,15.16,12.82c0.67,0.4,1.5,0.45,2.11-0.03 c2.5-1.97,8.58-9.45,8.58-9.45s4.33,17.62,2.51,32.85c-1.83,15.23-4.96,27.07-4.96,27.07c-0.09,0.75,0.3,1.48,1,1.81 c3.01,1.45,17.53,4.72,34.39,4.75c16.86-0.02,31.38-3.3,34.39-4.75c0.7-0.33,1.09-1.07,1-1.81c0,0-3.14-11.83-4.96-27.07 c-1.83-15.23,2.51-32.85,2.51-32.85s6.08,7.48,8.58,9.45c0.61,0.48,1.44,0.43,2.11,0.03c9.53-5.63,13.95-9.7,15.16-12.82 C123.03,47.49,122.58,46.93,122.23,46.29z" fill="#CFB0EA"/>
    <g>
      <path d="M82.36,9.48c-0.72-0.68-2.39-2.07-5.26-1.26c-3.11,0.87-7.83,1.5-13.22,1.52 C58.5,9.72,53.78,9.1,50.67,8.22c-2.86-0.8-4.53,0.59-5.26,1.26c-1.16,1.08-4.74,3.86-4.74,4.95c0,3.81,1.92,15.37,12.59,17.23 c5.28,0.92,8.62-3.54,9.96-5.82c0.15-0.25,0.4-0.38,0.66-0.39c0.26,0.02,0.51,0.14,0.66,0.39c1.34,2.29,4.68,6.74,9.96,5.82 C85.17,29.81,87.1,18.25,87.1,14.44C87.1,13.34,83.52,10.56,82.36,9.48z" fill="#EEEEEE"/>
      <path d="M40.78,14.44c0.45,3.01,1.33,5.93,2.81,8.46c1.41,2.55,3.4,4.68,5.83,5.9 c1.21,0.62,2.53,1,3.87,1.24c1.28,0.23,2.45,0.09,3.56-0.39c1.11-0.47,2.14-1.25,3.03-2.24c0.45-0.49,0.86-1.03,1.24-1.59 c0.19-0.28,0.37-0.57,0.54-0.87l0.14-0.25c0.17-0.3,0.42-0.57,0.72-0.78c0.6-0.42,1.34-0.54,2.03-0.36 c0.34,0.09,0.68,0.26,0.95,0.49c0.14,0.11,0.26,0.25,0.37,0.38l0.15,0.21l0.04,0.06l0.3,0.48c0.19,0.31,0.39,0.61,0.58,0.9 c0.39,0.58,0.8,1.12,1.24,1.61c0.88,0.98,1.9,1.71,3.01,2.14c1.11,0.44,2.36,0.53,3.65,0.33c1.32-0.23,2.68-0.61,3.88-1.21 c2.44-1.19,4.39-3.32,5.66-5.93c0.67-1.29,1.19-2.69,1.59-4.14c0.39-1.45,0.68-2.94,1.01-4.45l0.2,0.02 c-0.24,3.03-0.64,6.12-1.81,8.97c-1.13,2.85-3.14,5.42-5.87,6.91c-1.34,0.77-2.82,1.26-4.34,1.56c-1.52,0.29-3.13,0.25-4.6-0.28 c-1.48-0.51-2.77-1.47-3.82-2.6c-0.53-0.57-1-1.18-1.44-1.81c-0.22-0.32-0.43-0.64-0.64-0.96l-0.31-0.48 c-0.09-0.15-0.18-0.22-0.31-0.26c-0.13-0.03-0.27-0.01-0.38,0.07c-0.05,0.04-0.1,0.09-0.14,0.14l-0.14,0.25 c-0.2,0.33-0.4,0.66-0.62,0.98c-0.44,0.63-0.92,1.25-1.45,1.81c-1.05,1.13-2.31,2.1-3.77,2.67c-1.45,0.58-3.08,0.69-4.59,0.36 c-1.51-0.3-2.99-0.81-4.33-1.59c-2.71-1.53-4.72-4.05-6.01-6.83c-1.28-2.79-1.99-5.84-2.05-8.91H40.78z" fill="#B881CF"/>
    </g>
    <path d="M82.36,9.48c-0.77-0.62-2.39-2.07-5.26-1.26c-3.11,0.87-7.83,1.5-13.22,1.52 C58.5,9.72,53.78,9.1,50.67,8.22c-2.86-0.8-4.53,0.59-5.26,1.26c-1.12,1.05-4.51,3.69-4.72,4.85c0.53,0.13,4.28-3.55,5.55-3.44 c0.98,0.08,2.34,3.3,4.69,4.11c2.35,0.81,25.78,0.36,25.78,0.36s2.21-1.74,3.41-3.39c0.72-0.99,1.36-1.36,2.39-0.85 c1.01,0.51,4.43,3.88,4.57,3.24C86.95,13.23,83.72,10.57,82.36,9.48z" fill="#B7D5E5"/>
    <path d="M21.39,62.22C14.7,58.19,9.13,53.63,4.21,48.85c-0.24-0.23-0.28-0.6-0.1-0.87l1.28-1.99 c0.24-0.37,0.74-0.43,1.05-0.13c4.7,4.51,11.1,9.47,17.43,13.31c0.37,0.23,0.44,0.74,0.14,1.06l-1.76,1.88 C22.04,62.34,21.67,62.39,21.39,62.22z" fill="#B881CF"/>
    <path d="M106.61,62.22c6.69-4.03,12.27-8.59,17.19-13.37c0.24-0.23,0.28-0.6,0.1-0.87l-1.28-1.99 c-0.24-0.37-0.74-0.43-1.05-0.13c-4.7,4.51-11.1,9.47-17.43,13.31c-0.37,0.23-0.44,0.74-0.14,1.06l1.76,1.88 C105.96,62.34,106.33,62.39,106.61,62.22z" fill="#B881CF"/>
    <linearGradient id="SVGID_1_" gradientUnits="userSpaceOnUse" x1="63.9827" x2="63.9827" y1="9.6472" y2="23.14">
      <stop offset="0.1815" stop-color="#B881CF"/>
      <stop offset="1" stop-color="#754CA5"/>
    </linearGradient>
    <path d="M77.28,9.99c-1.7,0.41-7.24,1.94-13.08,1.94c-0.07,0-0.14,0-0.21,0c-0.07,0-0.14,0-0.21,0 c-5.84,0-11.39-1.52-13.08-1.94c-1.7-0.41-2.36,0.01-2.03,1.37c1.43,3.66,5.7,9,15.33,9.01c9.63-0.01,13.9-5.35,15.33-9.01 C79.64,9.99,78.98,9.58,77.28,9.99z" fill="url(#SVGID_1_)"/>
  </g>
</svg>

<svg viewBox="0 0 128 128" xmlns="http://www.w3.org/2000/svg">
  <defs>
    <linearGradient id="SVGID_1_" gradientUnits="userSpaceOnUse" x1="63.9827" x2="63.9827" y1="9.6472" y2="23.14">
      <stop offset="0.1815" stop-color="#B881CF"/>
      <stop offset="1" stop-color="#754CA5"/>
    </linearGradient>
  </defs>
  <path d="M122.23,46.29 C119.76,41.67 109.24,24.65 98.67,18.32 C96.07,16.77 88.85,14.77 85.63,13.89 L85.63,13.89 C81.38,12.4 79.97,12.61 78.59,13.26 C73.33,15.75 69.8,16.94 64.41,16.94 C64.26,16.94 64.12,16.93 63.98,16.93 C63.84,16.94 63.7,16.94 63.55,16.94 C58.16,16.94 54.63,15.75 49.37,13.26 C47.99,12.61 46.58,12.4 42.33,13.89 L42.33,13.89 C39.11,14.77 31.89,16.77 29.29,18.32 C18.72,24.64 8.2,41.67 5.73,46.29 C5.38,46.93 4.94,47.5 5.2,48.17 C6.42,51.28 10.83,55.35 20.36,60.99 C21.03,61.39 21.86,61.44 22.47,60.96 C24.97,58.99 31.05,51.51 31.05,51.51 C31.05,51.51 35.38,69.13 33.56,84.36 C31.73,99.59 28.6,111.43 28.6,111.43 C28.51,112.18 28.9,112.91 29.6,113.24 C32.61,114.69 47.13,117.96 63.99,117.99 C80.85,117.97 95.37,114.69 98.38,113.24 C99.08,112.91 99.47,112.17 99.38,111.43 C99.38,111.43 96.24,99.6 94.42,84.36 C92.59,69.13 96.93,51.51 96.93,51.51 C96.93,51.51 103.01,58.99 105.51,60.96 C106.12,61.44 106.95,61.39 107.62,60.99 C117.15,55.36 121.57,51.29 122.78,48.17 C123.03,47.49 122.58,46.93 122.23,46.29 Z" fill="#CFB0EA"/>
  <path d="M82.36,9.48 C81.64,8.8 79.97,7.41 77.1,8.22 C73.99,9.09 69.27,9.72 63.88,9.74 C58.5,9.72 53.78,9.1 50.67,8.22 C47.81,7.42 46.14,8.81 45.41,9.48 C44.25,10.56 40.67,13.34 40.67,14.43 C40.67,18.24 42.59,29.8 53.26,31.66 C58.54,32.58 61.88,28.12 63.22,25.84 C63.37,25.59 63.62,25.46 63.88,25.45 C64.14,25.47 64.39,25.59 64.54,25.84 C65.88,28.13 69.22,32.58 74.5,31.66 C85.17,29.81 87.1,18.25 87.1,14.44 C87.1,13.34 83.52,10.56 82.36,9.48 Z" fill="#EEEEEE"/>
  <path d="M40.78,14.44 C41.23,17.45 42.11,20.37 43.59,22.9 C45,25.45 46.99,27.58 49.42,28.8 C50.63,29.42 51.95,29.8 53.29,30.04 C54.57,30.27 55.74,30.13 56.85,29.65 C57.96,29.18 58.99,28.4 59.88,27.41 C60.33,26.92 60.74,26.38 61.12,25.82 C61.31,25.54 61.49,25.25 61.66,24.95 L61.8,24.7 C61.97,24.4 62.22,24.13 62.52,23.92 C63.12,23.5 63.86,23.38 64.55,23.56 C64.89,23.65 65.23,23.82 65.5,24.05 C65.64,24.16 65.76,24.3 65.87,24.43 L66.02,24.64 L66.06,24.7 L66.36,25.18 C66.55,25.49 66.75,25.79 66.94,26.08 C67.33,26.66 67.74,27.2 68.18,27.69 C69.06,28.67 70.08,29.4 71.19,29.83 C72.3,30.27 73.55,30.36 74.84,30.16 C76.16,29.93 77.52,29.55 78.72,28.95 C81.16,27.76 83.11,25.63 84.38,23.02 C85.05,21.73 85.57,20.33 85.97,18.88 C86.36,17.43 86.65,15.94 86.98,14.43 L87.18,14.45 C86.94,17.48 86.54,20.57 85.37,23.42 C84.24,26.27 82.23,28.84 79.5,30.33 C78.16,31.1 76.68,31.59 75.16,31.89 C73.64,32.18 72.03,32.14 70.56,31.61 C69.08,31.1 67.79,30.14 66.74,29.01 C66.21,28.44 65.74,27.83 65.3,27.2 C65.08,26.88 64.87,26.56 64.66,26.24 L64.35,25.76 C64.26,25.61 64.17,25.54 64.04,25.5 C63.91,25.47 63.77,25.49 63.66,25.57 C63.61,25.61 63.56,25.66 63.52,25.71 L63.38,25.96 C63.18,26.29 62.98,26.62 62.76,26.94 C62.32,27.57 61.84,28.19 61.31,28.75 C60.26,29.88 59,30.85 57.54,31.42 C56.09,32 54.46,32.11 52.95,31.78 C51.44,31.48 49.96,30.97 48.62,30.19 C45.91,28.66 43.9,26.14 42.61,23.36 C41.33,20.57 40.62,17.52 40.56,14.45 L40.78,14.45 Z" fill="#B881CF"/>
  <path d="M82.36,9.48 C81.59,8.86 79.97,7.41 77.1,8.22 C73.99,9.09 69.27,9.72 63.88,9.74 C58.5,9.72 53.78,9.1 50.67,8.22 C47.81,7.42 46.14,8.81 45.41,9.48 C44.29,10.53 40.9,13.17 40.69,14.33 C41.22,14.46 44.97,10.78 46.24,10.89 C47.22,10.97 48.58,14.19 50.93,15 C53.28,15.81 76.71,15.36 76.71,15.36 C76.71,15.36 78.92,13.62 80.12,11.97 C80.84,10.98 81.48,10.61 82.51,11.12 C83.52,11.63 86.94,15 87.08,14.36 C86.95,13.23 83.72,10.57 82.36,9.48 Z" fill="#B7D5E5"/>
  <path d="M21.39,62.22 C14.7,58.19 9.13,53.63 4.21,48.85 C3.97,48.62 3.93,48.25 4.11,47.98 L5.39,45.99 C5.63,45.62 6.13,45.56 6.44,45.86 C11.14,50.37 17.54,55.33 23.87,59.17 C24.24,59.4 24.31,59.91 24.01,60.23 L22.25,62.11 C22.04,62.34 21.67,62.39 21.39,62.22 Z" fill="#B881CF"/>
  <path d="M106.61,62.22 C113.3,58.19 118.88,53.63 123.8,48.85 C124.04,48.62 124.08,48.25 123.9,47.98 L122.62,45.99 C122.38,45.62 121.88,45.56 121.57,45.86 C116.87,50.37 110.47,55.33 104.14,59.17 C103.77,59.4 103.7,59.91 104,60.23 L105.76,62.11 C105.96,62.34 106.33,62.39 106.61,62.22 Z" fill="#B881CF"/>
  <path d="M77.28,9.99 C75.58,10.4 70.04,11.93 64.2,11.93 C64.13,11.93 64.06,11.93 63.99,11.93 C63.92,11.93 63.85,11.93 63.78,11.93 C57.94,11.93 52.39,10.41 50.7,9.99 C49,9.58 48.34,10 48.67,11.36 C50.1,15.02 54.37,20.36 64,20.37 C73.63,20.36 77.9,15.02 79.33,11.36 C79.64,9.99 78.98,9.58 77.28,9.99 Z" fill="url(#SVGID_1_)"/>
</svg>
